assets/images/img-guide-avatar-redline-24.svg

<svg xmlns="http://www.w3.org/2000/svg" width="40" height="24" fill="none" viewBox="0 0 40 24"><g clip-path="url(#clip0_2609_126324)"><line x1="25" x2="40" y1=".5" y2=".5" stroke="#E8178A"/><line x1="32.5" x2="32.5" y1="25" y2="1" stroke="#E8178A"/><line x1="25" x2="40" y1="23.5" y2="23.5" stroke="#E8178A"/></g><path fill="#E8178A" d="M11.7201 17V15.6807H7.08531L9.30016 13.3154C9.59182 13.0055 9.8607 12.7048 10.1068 12.4131C10.3574 12.1214 10.5739 11.832 10.7562 11.5449C10.9339 11.2578 11.0729 10.9684 11.1732 10.6768C11.278 10.3805 11.3304 10.0752 11.3304 9.76074C11.3304 9.34147 11.2621 8.95866 11.1254 8.6123C10.9886 8.26139 10.7904 7.96061 10.5306 7.70996C10.2663 7.45931 9.94046 7.26335 9.55309 7.12207C9.17027 6.98079 8.73505 6.91016 8.24742 6.91016C7.72789 6.91016 7.25621 6.99447 6.83238 7.16309C6.41311 7.33171 6.05764 7.55957 5.76598 7.84668C5.46975 8.13379 5.24189 8.47103 5.08238 8.8584C4.92288 9.24121 4.84312 9.64909 4.84312 10.082H6.48375C6.48375 9.79492 6.52021 9.53971 6.59312 9.31641C6.66604 9.08854 6.77542 8.89486 6.92125 8.73535C7.06253 8.58496 7.24026 8.46875 7.45445 8.38672C7.66865 8.30469 7.92157 8.26367 8.21324 8.26367C8.44111 8.26367 8.64618 8.30241 8.82848 8.37988C9.01532 8.45736 9.17483 8.56445 9.30699 8.70117C9.43915 8.83789 9.53941 9.00195 9.60777 9.19336C9.67613 9.38477 9.71031 9.59668 9.71031 9.8291C9.71031 10.0023 9.68525 10.1755 9.63512 10.3486C9.58954 10.5173 9.51207 10.6995 9.40269 10.8955C9.28876 11.0915 9.14065 11.3079 8.95836 11.5449C8.77607 11.7773 8.55048 12.0417 8.2816 12.3379L5.04137 15.8652V17H11.7201ZM19.0244 13.4521V7.04688H17.3428L13.043 13.7734L13.084 14.7783H17.3906V17H19.0244V14.7783H20.2754V13.4521H19.0244ZM14.7109 13.4521L17.1992 9.58984L17.3906 9.23438V13.4521H14.7109Z"/><defs><clipPath id="clip0_2609_126324"><rect width="15" height="24" fill="#fff" transform="translate(25)"/></clipPath></defs></svg>

<svg xmlns="http://www.w3.org/2000/svg" width="40" height="24" fill="none" viewBox="0 0 40 24"><g stroke="#E8178A" clip-path="url(#a)"><path d="M25 .5h15M32.5 25V1M25 23.5h15"/></g><path fill="#E8178A" d="M11.72 17v-1.32H7.085L9.3 13.316q.437-.465.807-.902.375-.438.65-.868.266-.431.416-.868.157-.444.157-.916 0-.63-.205-1.149a2.5 2.5 0 0 0-.594-.902 2.8 2.8 0 0 0-.978-.588 3.8 3.8 0 0 0-1.306-.212q-.779 0-1.415.253-.628.253-1.066.684a3 3 0 0 0-.684 1.011q-.24.575-.239 1.224h1.64q0-.43.11-.766.11-.341.328-.58a1.4 1.4 0 0 1 .533-.35 2.1 2.1 0 0 1 .76-.122q.34 0 .614.116.28.116.479.321t.3.492q.104.288.103.636 0 .26-.075.52a2.5 2.5 0 0 1-.232.547 6 6 0 0 1-.445.649q-.274.349-.676.793l-3.24 3.527V17zm7.304-3.548V7.047h-1.681l-4.3 6.726.041 1.005h4.307V17h1.633v-2.222h1.251v-1.326zm-4.313 0 2.488-3.862.192-.356v4.218z"/><defs><clipPath id="a"><path fill="#fff" d="M25 0h15v24H25z"/></clipPath></defs></svg>
